assets/Octopus/Flat/octopus_flat.svg

<svg width="32" height="32" viewBox="0 0 32 32" fill="none" xmlns="http://www.w3.org/2000/svg">
<path d="M7.31134 17.6539C7.42659 18.0654 7.50536 18.3466 6.71875 18.25C6.27535 18.1955 5.88101 18.1308 5.56464 18.0788C5.24554 18.0264 5.00577 17.987 4.875 17.9844C4.70833 17.9896 4.4625 18.2844 4.75 18.9844C5.0375 19.6844 5.38542 20.3958 5.57812 20.7031L9.17188 19.8125L7.5625 17.3594L7.26562 17.4844C7.28022 17.5428 7.2961 17.5995 7.31134 17.6539Z" fill="#F8312F"/>
<path d="M24.7125 17.6539C24.5973 18.0654 24.5185 18.3466 25.3051 18.25C25.7485 18.1955 26.1428 18.1308 26.4592 18.0788C26.7783 18.0264 27.0181 17.987 27.1488 17.9844C27.3155 17.9896 27.5613 18.2844 27.2738 18.9844C26.9863 19.6844 26.6384 20.3958 26.4457 20.7031L22.852 19.8125L24.4613 17.3594L24.7582 17.4844C24.7436 17.5428 24.7277 17.5995 24.7125 17.6539Z" fill="#F8312F"/>
<path d="M8.17722 18.841C8.33838 19.1786 8.54222 19.6056 7.375 19.875L2.76562 20.9219C2.00783 21.1249 2.11991 21.4306 2.24244 21.765C2.2614 21.8167 2.2806 21.8691 2.29687 21.9219C2.74007 23.3599 6 25.8125 8.15625 25.5L12.3125 21.7812L8.42188 18.5938L8.15625 18.7969C8.16307 18.8114 8.17011 18.8261 8.17722 18.841Z" fill="#FF5E59"/>
<path d="M23.977 18.841C23.8159 19.1786 23.612 19.6056 24.7792 19.875L29.3886 20.9219C30.1464 21.1249 30.0343 21.4306 29.9118 21.765C29.8928 21.8167 29.8736 21.8691 29.8574 21.9219C29.4142 23.3599 26.1542 25.8125 23.998 25.5L19.8417 21.7812L23.7324 18.5938L23.998 18.7969C23.9912 18.8114 23.9841 18.8261 23.977 18.841Z" fill="#FF5E59"/>
<path d="M20.9627 20.7275L26.988 22.1259C27.1456 22.1176 27.4162 22.2503 27.238 22.8476C27.0152 23.5942 26.4704 25.1452 22.9577 25.1347C20.1475 25.1264 19.7181 22.5055 19.8547 21.196L20.9627 20.7275Z" fill="#FF8687"/>
<path d="M11.25 21.2812L5.125 22.0937C4.96875 22.0728 4.6875 22.1749 4.8125 22.7499C4.96875 23.4687 5.375 24.9687 8.875 25.2499C11.675 25.4749 12.3333 23.052 12.3125 21.8124L11.25 21.2812Z" fill="#FF8687"/>
<path d="M10.9531 21.3594C11.1198 21.5521 11.3 22.0656 10.6875 22.5781C10.075 23.0906 6.94271 25.8542 5.45313 27.1719C5.16476 27.427 5.28134 27.5969 5.49493 27.9083C5.5117 27.9328 5.52906 27.9581 5.54688 27.9844C6.54939 29.4643 11.6719 31.9219 15.6875 26.7656C15.8022 26.6183 15.8926 26.5183 16 26.5163V26.5281C16.0118 26.524 16.0233 26.521 16.0345 26.519C16.0458 26.521 16.0573 26.524 16.0691 26.5281V26.5163C16.1765 26.5183 16.2669 26.6183 16.3816 26.7656C20.3972 31.9219 25.5197 29.4643 26.5222 27.9844C26.54 27.9581 26.5574 27.9328 26.5741 27.9083C26.7877 27.5969 26.9043 27.427 26.6159 27.1719C25.1264 25.8542 21.9941 23.0906 21.3816 22.5781C20.7691 22.0656 20.9493 21.5521 21.1159 21.3594L20.0144 20.9766L16.0345 22.2623L12.0547 20.9766L10.9531 21.3594Z" fill="#FF5E59"/>
<path d="M6.375 12C6.375 7.02944 10.4044 3 15.375 3H17C21.9706 3 26 7.02944 26 12V13.625C26 18.5956 21.9706 22.625 17 22.625H15.375C10.4044 22.625 6.375 18.5956 6.375 13.625V12Z" fill="#FF8257"/>
<path d="M6.375 15.25C7.32424 15.25 8.09375 14.4805 8.09375 13.5312C8.09375 12.582 7.32424 11.8125 6.375 11.8125C5.42576 11.8125 4.65625 12.582 4.65625 13.5312C4.65625 14.4805 5.42576 15.25 6.375 15.25Z" fill="#1C1C1C"/>
<path d="M25.5625 15.25C26.5117 15.25 27.2812 14.4805 27.2812 13.5312C27.2812 12.582 26.5117 11.8125 25.5625 11.8125C24.6133 11.8125 23.8438 12.582 23.8438 13.5312C23.8438 14.4805 24.6133 15.25 25.5625 15.25Z" fill="#1C1C1C"/>
</svg>

<svg xmlns="http://www.w3.org/2000/svg" width="32" height="32" fill="none"><path fill="#F8312F" d="M7.311 17.654c.116.411.194.693-.592.596-.444-.055-.838-.12-1.154-.171-.32-.053-.56-.092-.69-.095-.167.006-.412.3-.125 1s.635 1.412.828 1.72l3.594-.892-1.61-2.453-.296.125c.014.059.03.115.045.17ZM24.712 17.654c-.115.411-.194.693.593.596.444-.055.838-.12 1.154-.171.32-.053.56-.092.69-.095.166.006.412.3.125 1-.288.7-.636 1.412-.828 1.72l-3.594-.892 1.61-2.453.296.125c-.014.059-.03.115-.046.17Z"/><path fill="#FF5E59" d="M8.177 18.841c.161.338.365.765-.802 1.034l-4.61 1.047c-.757.203-.645.509-.523.843.02.052.039.104.055.157C2.74 23.36 6 25.812 8.157 25.5l4.155-3.719-3.89-3.187-.266.203.021.044ZM23.977 18.841c-.161.338-.365.765.802 1.034l4.61 1.047c.757.203.645.509.523.843a3.059 3.059 0 0 0-.055.157c-.443 1.438-3.703 3.89-5.859 3.578l-4.156-3.719 3.89-3.187.266.203-.021.044Z"/><path fill="#FF8687" d="m20.963 20.727 6.025 1.399c.158-.008.428.124.25.722-.223.746-.768 2.297-4.28 2.287-2.81-.009-3.24-2.63-3.103-3.939l1.108-.469ZM11.25 21.281l-6.125.813c-.156-.021-.438.08-.313.656.157.719.563 2.219 4.063 2.5 2.8.225 3.458-2.198 3.438-3.438l-1.063-.53Z"/><path fill="#FF5E59" d="M10.953 21.36c.167.192.347.706-.265 1.218-.613.513-3.745 3.276-5.235 4.594-.288.255-.172.425.042.736l.052.076c1.002 1.48 6.125 3.938 10.14-1.218.115-.148.206-.248.313-.25v.012a.226.226 0 0 1 .035-.009.224.224 0 0 1 .034.01v-.013c.108.002.198.102.313.25 4.015 5.156 9.138 2.698 10.14 1.218l.052-.076c.214-.311.33-.481.042-.736-1.49-1.318-4.622-4.081-5.234-4.594-.613-.512-.433-1.026-.266-1.219l-1.102-.382-3.98 1.285-3.98-1.285-1.1.382Z"/><path fill="#FF8257" d="M6.375 12a9 9 0 0 1 9-9H17a9 9 0 0 1 9 9v1.625a9 9 0 0 1-9 9h-1.625a9 9 0 0 1-9-9V12Z"/><path fill="#1C1C1C" d="M6.375 15.25a1.719 1.719 0 1 0 0-3.438 1.719 1.719 0 0 0 0 3.438ZM25.563 15.25a1.719 1.719 0 1 0 0-3.437 1.719 1.719 0 0 0 0 3.437Z"/></svg>
